X:7882
T:Choucoune
T:Mocking bird
C:anon.
O:USA
A:Florida (Creole)
Z:Transcribed by Frank Nordberg - http://www.musicaviva.com
F:http://abc.musicaviva.com/tunes/usa/choucoune.abc
M:C
L:1/8
K:F
"F"c6=B2|"F"c6A2|"Gm7"BB2A "C7"B2c2|"F"A8:|
"Gm"D2DG- GBd2|"F"C2CF- FAc2|"C7"C2CE- EGB2|"F"C2CF- FAc2|
"Gm"D2DG- GBd2|"F"C2CF- FAc2|"C7"C2CB- BAG2|"F"F8|]
W:
W:
W:  From Musica Viva - http://www.musicaviva.com
W:  the Internet center for free sheet music downloads.
